X:9272
T:LARIDE 2
Z: Yves BELOTTEAU
M:6/8
L:1/8
Q:1/4=88
K:C 
|:A/2B/2c/2Bc/2 AG/2F3/2|c/2d/2e/2dB/2 B/2c/2d/2cB/2|A/2B/2c/2Bc/2 AG/2F
3/2|c/2d/2e/2dB/2 B/2c/2B/2A3/2:|
|:ef/2ed/2 c/2B/2A/2B3/2|eB/2eB/2 B/2c/2d/2cA/2|ef/2ed/2 c/2B/2A/2B3/2|e
B/2eB/2 B/2c/2B/2A3/2:|
